X:1
T:Skiowa Jig
T:Skiowa Jig
T:James Buckley
C:James Buckley
L:1/8
M:2/4
K:A
V:1 treble 
V:1
 A,>e c>e | (3fee e2 | A,>e c>e | e>B G>e | A,>e c>e | (3fee e2 | A>B G>E | A2 A, z :: e2 a2 | %9
 e>c A>c | (3EGB (3dBG | A>c E>c | e2 a2 | e>c A>c | (3EGB (3eBG | A2 A, z :| %16

